material/.icons/material/inbox-full.svg

<svg xmlns="http://www.w3.org/2000/svg" viewBox="0 0 24 24"><path d="M19 15V5H5v10h4c0 1.66 1.34 3 3 3s3-1.34 3-3h4m0-12c1.1 0 2 .9 2 2v14c0 1.1-.9 2-2 2H5a2 2 0 01-2-2V5a2 2 0 012-2h14M7 13v-2h10v2H7m0-4V7h10v2H7z"/></svg>

<?xml version="1.0" encoding="UTF-8"?><!DOCTYPE svg PUBLIC "-//W3C//DTD SVG 1.1//EN" "http://www.w3.org/Graphics/SVG/1.1/DTD/svg11.dtd"><svg xmlns="http://www.w3.org/2000/svg" xmlns:xlink="http://www.w3.org/1999/xlink" version="1.1" id="mdi-inbox-full" width="24" height="24" viewBox="0 0 24 24"><path d="M19 15V5H5V15H9C9 16.66 10.34 18 12 18C13.66 18 15 16.66 15 15H19M19 3C20.1 3 21 3.9 21 5V19C21 20.1 20.1 21 19 21H5C3.89 21 3 20.1 3 19L3 5C3 3.9 3.89 3 5 3H19M7 13V11H17V13H7M7 9V7H17V9H7Z" /></svg>
